X: 316
T: Xi jindan
L: 1/8
M: 2/4
K: G
d d e d [I:setbarnb 1]| 
A2z2 | 
d d e d | 
A2z2 | 
B> BB2 | 
A B A F | 
d D F E | 
D3E | 
A B A G | 
E E G E | 
D4 |]

@@@ Tune index: 9190
